X:6901
T:Haste to the Wedding. GHW.068
M:6/8
L:1/8
Q:120
S:George H.Watson,MS,Swanton Abbott,Norfolk,1850-1880
R:Jig
O:England
A:Norfolk
Z:vmp.Taz Tarry
K:C
G|GEG (Gg)e|d>cd ecA|GEG (Gc)>E|EDD D2G|!
GEF Gge|d>cd ecA|GEG (Gg)f|ecc c2||!
g|geg geg|afa afa|geg gfe|edd d2 (e/f/)|!
g3e3|d>cd ecA|GEF (Gg)e|ecc c2||
